X:1
T: Fire Him Out
C:
R:Reel
Q: 232
K:A
M:4/4
L:1/8
|:E2 AB c4|BA Bc BA F2|E2 AB c1/2e1/2f3|fe cA B4|
E2 AB c4|BA Bc BA FE|ag ae fe cA|1BA Bc A4:|2BA Bc A2 E2|
|:AG AB AE CE|ed Ba BA FA|EA ce Ac eA|fe cA B2 E2|
AG AB AE CE|ed Bd BA FA|EA ce Ac ef|1fe dB A2 E2:|2fe dB A4||
